X: 10572
T: HOB OR KNOB
C:
N: A version of The Campbells Are Coming.
%R: jig
B: Elias Howe "The Musician's Companion" Part 1 1842 p.57 #2
S: http://imslp.org/wiki/The_Musician's_Companion_(Howe,_Elias)
Z: 2015 John Chambers <jc:trillian.mit.edu>
M: 6/8
L: 1/8
K: G
% - - - - - - - - - - - - - - - - - - - - - - - - -
V: 1 staves=2
D |\
GBd d<BG | BcB B2A | GBe dcB | ABA AFD |\
GBe d<BG | B2d g2a | bag e<ge | dBB B2 :|
|: d |\
g2g g>ab | d2d d>BG | g2g g>ab | e2e e2d |\
def gfe | dBd g2a | bag ege | dBB B2 :|
% - - - - - - - - - - - - - - - - - - - - - - - - -
V: 2 clef=bass middle=d
z |\
Ggg Ggg | Ggg Ggg | Ggg Ggg | ddd d2z |\
Ggg Ggg | Ggg Ggg | Ggg Ggg | Ggg g2 :|
|: z |\
g2g g2g | g2g g2z | b2b b2b | c2c c2z |\
Ggg Ggg | Ggg Ggg | Ggg Ggg | Ggg g2 :|
% - - - - - - - - - - - - - - - - - - - - - - - - -


